X:1
T:My Ain Countrie
T:My Ain Countrie
T:Mrs. Ione T. Hanna, 1864, harmonized by H. P. M
T:Mary Lee Demarest, 1861
T:Public Domain Courtesy of the Cyber Hymnal™
T:Public Domain Courtesy of the Cyber Hymnal™
C:Mrs. Ione T. Hanna, 1864, harmonized by H. P. M
Z:Public Domain
Z:Courtesy of the Cyber Hymnal™
%%score ( 1 2 ) ( 3 4 )
L:1/8
Q:1/4=110
M:4/4
K:C
V:1 treble 
V:2 treble 
V:3 bass 
V:4 bass 
V:1
|: C>[CD] | ([CE]2 [CE])[CE]>[CF] ([CE]2 [CE])C>[CE] | [EG][EG] [EG]>[FA] [EG]2 [EG]G | %3
w: 1.~I am|far * frae my hame, * an’ I’m|wea- ry aft- en- whiles, For the|
w: ~~~~An’ I’ll|ne’er * be fu’ con- * tent, un-|til mine een do see The gow-|
w: 2.~I’ve his|gude * word o’ prom- * ise that|some glad- some day, the King To|
w: ~~~~W- i’-|een * an’ wi’ hert * rin- nin’|ow- re, we shall see Th- e|
w: 3.~Sa- e|little * noo I ken, * o’ yon|bless- èd, bon- nie place I ~|
w: ~~~~It wad|surely * be e- neuch * fo- r|ev- er mair to be In the|
w: 4.~He is|faithfu’ * that hath promised, * an He’ll|sure- ly come a- gain, He- ’ll|
w: ~~~~But He|bids~me * still to wait, * a- n’|rea- dy aye to be, T- o|
 [FA]2 [FA][FA]>[FA] ([FA]<[Fc])C>[CD] |1 [CE][B,D] [B,D]>[^A,^C] [B,D]2 :|2 %5
w: langed for hame bring- in’, * an’ my|Fa- ther’s wel- come smiles|
w: den gates o’ Heav- ’n * an’ my|~ ~ ~ ~ ~|
w: His ain roy- al pal- * ace his|ban- ished hame will bring;|
w: King in His beau- ty, * in oor|~ ~ ~ ~ ~|
w: on- ly ken it’s Hame, * wha- ur|we shall see His face,|
w: glo- ry o’ his presence, * in oor|~ ~ ~ ~ ~|
w: keep His tryst wi’ me, * at what|oor I din- nna ken;|
w: gang at on- y moment * to my|~ ~ ~ ~ ~|
 [CE]2 ([B,D]>C) C2 z!fine! ||"^Refrain" ([EG]/[EG]/) | [Ec]>[Ec] [Ec]>[Ec] [Ed]<[Ec] [Ec]>[Fd] | %8
w: |||
w: ain count- * rie.|||
w: |||
w: ain count- * rie.|The *|earth is fleck’d wi’ flow- ers, mo- ny|
w: ~ ~ * ~|~The *|bird- ies war- ble blithe- ly, for my|
w: ain count- * rie.|||
w: |||
w: ain count- * rie.|||
 [Ge]<[Ec] [FA]>[Fc] [EG]3!D.C.! |] %9
w: |
w: |
w: |
w: tint- ed, fresh an’ gay|
w: Fai- ther made them sae:|
w: |
w: |
w: |
V:2
|: C3/2 x/ | x8 C3/2 x/ | x7 G | x7 C3/2 x/ |1 x6 :|2 x7/2 C/ C2 x || x | x8 | x7 |] %9
V:3
|: [C,E,]>[C,F,] | ([C,G,]2 [C,G,])[C,G,]>[C,A,] ([C,G,]2 [C,G,])[C,E,]>[C,G,] | %2
w: D.C.~But these|sights * an’ these soun’s * will as|
 [C,C][C,C] [C,C]>[C,C] [C,C]2 [C,C][E,C] | [F,C]2 [F,C][F,C]>[F,C] ([F,C]<[F,A,])[E,G,]>[F,A,] |1 %4
w: nae- thing be to me, When I|hear the an- gels singin’ * in my|
 G,G, G,>G, G,2 :|2 G,2 ([G,,F,]>[C,E,]) [C,E,]2 z || ([C,G,]/[C,G,]/) | %7
w: ~ ~ ~ ~ ~|~ain count- * rie.||
 [C,G,]>[C,G,] [C,G,]>[C,G,] [B,,G,]<[C,G,] [C,G,]>[C,G,] | [C,C]<[C,C] [F,C]>[A,C] C3 |] %9
w: ||
V:4
|: x2 | x10 | x8 | x9 |1 G,G, G,>G, G,2 :|2 G,2 x5 || x | x8 | x4 C3 |] %9

